!!!COM: Sousa, John Phillip
!!!CDT: 1854/11/05/-1932/04/08/
!!!OTL: Stars and Strips Forever March
!!!ODT: 1897///
!!!WIK: http://en.wikipedia.org/wiki/Stars_and_stripes_forever
!!!ONB: Arrangement for keyboard
**kern	**kern	**dynam
*staff2	*staff1	*staff1/2
*Ipiano	*Ipiano	*Ipiano
*>[I,A,A1,A,A2,B,B1,B,B2,C,D,D1,D,D2]	*>[I,A,A1,A,A2,B,B1,B,B2,C,D,D1,D,D2]	*>[I,A,A1,A,A2,B,B1,B,B2,C,D,D1,D,D2]
*>norep[I,A,A2,B,B2,C,D,D2]	*>norep[I,A,A2,B,B2,C,D,D2]	*>norep[I,A,A2,B,B2,C,D,D2]
*>I	*>I	*>I
*clefF4	*clefG2	*clefG2
*k[b-e-a-]	*k[b-e-a-]	*k[b-e-a-]
*E-:	*E-:	*E-:
*M2/2	*M2/2	*M2/2
*MM220	*MM220	*MM220
=1-	=1-	=1-
2EE-/ 2E-/	2e-/ 2ee-/	f
4.DD/ 4.D/	4.d/ 4.dd/	.
8EE-/ 8E-/	8e-/ 8ee-/	.
=2	=2	=2
4CC/ 4C/	4c/ 4cc/	.
4r	2e-/ 2ee-/	.
2C\ 2E-\ 2c\	.	.
.	4f\ 4ff\	.
=3	=3	=3
2C-\ 2E-\ 2c-\	4g-\ 4gg-\	.
.	4gn\ 4ggn\	.
2C-\ 2E-\ 2c-\	4a-\ 4aa-\	.
.	4an\ 4aan\	.
=4	=4	=4
4BB-\ 4D\ 4F\ 4B-\	4b-\ 4bb-\	.
4r	4r	.
2r	2b-\	.
=5!|:	=5!|:	=5!|:
*>A	*>A	*>A
*^	*	*
4r	2E-^\	4b-\ 4gg\	mf
4G/ 4B-/	.	8r	.
.	.	8b-\ 8gg\	<
4r	2D^\	4bn\ 4gg\	.
4F/ 4G/	.	4b\ 4gg\	.
=6	=6	=6	=6
4r	2C\	4cc\ 4gg\	.
4E-/ 4G/ 4c/	.	8r	.
.	.	8cc\ 8gg\	.
4r	2F\	4cc\ 4aa-\	.
4A-/ 4c/	.	4cc\ 4aa-\	.
=7	=7	=7	=7
4r	2D^\	(8ff\L	.
.	.	8een\)	.
4F/ 4B-/	.	8ff'\	.
.	.	8gg'\J	.
4r	2C^\	4ff'\	.
4F/ 4An/	.	4ee-'\	.
=8	=8	=8	=8
.	.	ee-q/	.
4r	2BB-^\	4dd'\	.
4F/ 4B-/	.	4cc'\	.
4r	2A-^\	4dd'\	.
4B-/ 4d/	.	4b-'\	.
=9	=9	=9	=9
4r	2G\	4b-\ 4bb-\	.
4B-/ 4e-/	.	8r	.
.	.	8b-\ 8bb-\	.
4r	2F\	4b-\ 4bb-\	.
4A-/ 4B-/	.	4b-\ 4bb-\	.
=10	=10	=10	=10
4r	2E-\	4b-\ 4bb-\	.
4G/ 4B-/	.	8r	.
.	.	8b-\ 8bb-\	.
4r	2D\	4bn\ 4bbn\	.
4G/ 4Bn/	.	4b\ 4bb\	.
=11	=11	=11	=11
4r	2C\	8cc\ (8ccc\L	.
.	.	8bbn\)	.
4G/ 4c/	.	8ccc'\	.
.	.	8eee-'\J	.
4r	2E-\	4ddd^\	.
4G/ 4c/	.	4cc\ 4ccc\	.
*v	*v	*	*
=12	=12	=12
4GG/	2.bn\ 2.bbn\	.
4G\ 4Bn\ 4d\	.	.
4G\ 4B\ 4d\	.	.
4G\ 4B\ 4d\	4b\ 4bb\	.
=13	=13	=13
4E-\	4b-\ 4bb-\	p
4G\ 4B-\	8r	.
.	8bb-\	.
4BB-/	4eee-'\	.
4G\ 4B-\	8r	.
.	8ccc'\	.
=14	=14	=14
4E-\	4bb-'\	.
4G\ 4B-\	4aan'\	.
4BB-/	4bb-'\	.
4G\ 4B-\	4gg'\	.
=15	=15	=15
4D\	4ff^\	f
4A-\ 4B-\	(8b-^/L	.
.	8an/J	.
4BB-/	8b-/L	.
.	8a/J	.
4A-\ 4B-\	4b-/)	.
=16	=16	=16
4D\	4ff^\	.
4A-\ 4B-\	(8b-^/L	.
.	8an/J	.
4BB-/	8b-/L	.
.	8a/J	.
4A-\ 4B-\	4b-/)	.
=17	=17	=17
4E-\	4b-\ 4bb-\	p
4G\ 4B-\	8r	.
.	8bb-'\	.
4BB-/	4eee-'\	.
4G\ 4B-\	8r	.
.	8ccc'\	.
=18	=18	=18
4E-\	4bb-'\	.
4G\ 4B-\	4aan'\	.
4BB-/	4bb-'\	.
4B-\ 4e-\	4gg-'\	.
=19	=19	=19
4F\	4ff\	f
4c\ 4e-\	(8an^/L	.
.	8g/J	.
4F\	8a/L	.
.	8g/J	.
4c\ 4e-\	4a/	.
=20	=20	=20
*>A1	*>A1	*>A1
4B-\ 4d\	4b-\)	.
4r	4r	.
2BB-\ 2D\ 2F\ 2B-\	2b-\	.
=21:|!	=21:|!	=21:|!
*>A2	*>A2	*>A2
4B-\ 4d\	4b-\	.
4r	4r	.
2BB-\ 2D\ 2F\ 2B-\	4.b-\ (4.bb-\	ff
.	8a-\ 8aa-\)	.
=22!|:	=22!|:	=22!|:
*>B	*>B	*>B
4E-\	2g\ 2gg\	ff
4G\ 4B-\	.	.
4BB-/	4.cc\ (4.ccc\	.
4G\ 4B-\	.	.
.	8b-\ 8bb-\)	.
=23	=23	=23
4F\	2d/ 2dd/	.
4A-\ 4B-\	.	.
4BB-/	2c/ 2cc/	.
4A-\ 4B-\	.	.
=24	=24	=24
4D\	2B-/ 2b-/	.
4A-\ 4B-\	.	.
4BB-/	2a-\ 2aa-\	.
4A-\ 4B-\	.	.
=25	=25	=25
4E-\	2g\ 2gg\	.
4G\ 4B-\ 4e-\	.	.
4G\ 4B-\ 4e-\	4.f\ (4.ff\	.
4G\ 4B-\ 4e-\	.	.
.	8g\ 8gg\)	.
=26	=26	=26
4AA-/	4a-\ 4aa-\	.
4A-\ 4c\ 4e-\	2cc\ 2ccc\	.
4A-\ 4c\ 4e-\	.	.
4A-\ 4c\ 4e-\	4ee-\ 4eee-\	.
=27	=27	=27
4AAn/	2ff\ 2fff\	.
4An\ 4c\ 4e-\	.	.
4A\ 4c\ 4e-\	2ee-\ 2eee-\	.
4A\ 4c\ 4e-\	.	.
=28	=28	=28
4BB-/	1g (1gg	.
4B-\ 4e-\	.	.
4E-^\	.	.
4G\ 4B-\ 4e-\	.	.
=29	=29	=29
4D^\	2f\ 2ff\)	.
4A-\ 4B-\ 4d\	.	.
2BB-\ 2D\ 2F\ 2B-\	4.b-\ (4.bb-\	.
.	8a-\ 8aa-\)	.
=30	=30	=30
4E-\	2g\ 2gg\	.
4G\ 4B-\	.	.
4BB-/	4.cc\ (4.ccc\	.
4G\ 4B-\	.	.
.	8b-\ 8bb-\)	.
=31	=31	=31
4F\	2d/ 2dd/	.
4A-\ 4B-\	.	.
4BB-/	2c/ 2cc/	.
4A-\ 4B-\	.	.
=32	=32	=32
4D\	2B-/ 2b-/	.
4A-\ 4B-\	.	.
4BB-/	2a-\ 2aa-\	.
4A-\ 4B-\	.	.
=33	=33	=33
*^	*	*
4r	2E-\	2g\ 2gg\	.
4G/ 4B-/	.	.	.
4r	2D-\	4.f\ (4.ff\	.
4G/ 4B-/	.	.	.
.	.	8g\ 8gg\)	.
=34	=34	=34	=34
4r	2C\	4a-\ (4aa-\	.
4E-/ 4A-/	.	4cc\ 4ccc\	.
4r	2C-\	4.ff\ 4.fff\	.
4E-/ 4A-/	.	.	.
.	.	8ee-\ 8eee-\)	.
*v	*v	*	*
=35	=35	=35
4BB-/	4g\ (4gg\	.
4G\ 4B-\ 4e-\	4b-\ 4bb-\	.
4G\ 4B-\ 4e-\	4.e-/ 4.ee-/	.
4G\ 4B-\ 4e-\	.	.
.	8g\ 8gg\)	.
=36	=36	=36
4BB-/	(1f 1ff	.
4A-\ 4B-\ 4d\	.	.
4A-\ 4B-\ 4d\	.	.
4A-\ 4B-\ 4d\	.	.
=37	=37	=37
*>B1	*>B1	*>B1
4E-\ 4G\ 4B-\	4e-/) 4ee-/	.
4r	4r	.
2BB-\ 2D\ 2F\ 2B-\	4.b-\ 4.bb-\	ff
.	8a-\ 8aa-\	.
=38:|!	=38:|!	=38:|!
*>B2	*>B2	*>B2
4E-\ 4G\ 4B-\	4e-/ 4ee-/	.
4r	4r	.
2r	2ee-\	p
=39	=39	=39
*>C	*>C	*>C
*k[b-e-a-d-]	*k[b-e-a-d-]	*k[b-e-a-d-]
4AA-^/	2ee-\	p
4A-\ 4c\ 4e-\	.	.
4A-\ 4c\ 4e-\	(4dd-\	.
4E-^\	4cc\)	.
=40	=40	=40
4AA-^/	2cc\	.
4A-\ 4c\ 4e-\	.	.
4A-\ 4c\ 4e-\	(4bn\	.
4E-^\	4cc\)	.
=41	=41	=41
4AA-^/	[1cc	.
4A-\ 4c\ 4e-\	.	.
4A-\ 4c\ 4e-\	.	.
4E-^\	.	.
=42	=42	=42
4AA-^/	2cc\]	.
4A-\ 4c\ 4e-\	.	.
4A-\ 4c\ 4e-\	(4bn^\	.
4E-^\	4cc\)	.
=43	=43	=43
4AA-^/	2cc\	.
4A-\ 4c\ 4e-\	.	.
4A-\ 4c\ 4e-\	(4bn^\	.
4E-^\	4cc\)	.
=44	=44	=44
4AA-^/	2ee-\	.
4A-\ 4c\ 4e-\	.	.
4A-\ 4c\ 4e-\	(4.cc^\	.
4E-^\	.	.
.	8ee-\)	.
=45	=45	=45
4BB-^/	(1dd-	.
4G\ 4d-\ 4e-\	.	.
4G\ 4d-\ 4e-\	.	.
4E-^\	.	.
=46	=46	=46
4BB-^/	2b-\)	.
4G\ 4d-\ 4e-\	.	.
4G\ 4d-\ 4e-\	2b-\	.
4E-^\	.	.
=47	=47	=47
4BB-^/	2b-\	.
4G\ 4d-\ 4e-\	.	.
4G\ 4d-\ 4e-\	4an^/	.
4E-^\	4b-/	.
=48	=48	=48
4BB-^/	2b-\	.
4G\ 4d-\ 4e-\	.	.
4G\ 4d-\ 4e-\	4an^/	.
4E-^\	4b-/	.
=49	=49	=49
4BB-^/	[1dd-	.
4G\ 4d-\ 4e-\	.	.
4G\ 4d-\ 4e-\	.	.
4E-^\	.	.
=50	=50	=50
4BB-^/	2dd-\]	.
4G\ 4d-\ 4e-\	.	.
4G\ 4d-\ 4e-\	(4cc\	.
4E-^\	4b-\)	.
=51	=51	=51
4AA-^/	4cc\	.
4A-\ 4c\ 4e-\	2.ee-\	.
4A-\ 4c\ 4e-\	.	.
4A-\ 4c\ 4e-\	.	.
=52	=52	=52
4D-^\	2.a-\ 2.dd-\ 2.ff\	.
4A-\ 4d-\ 4f\	.	.
4A-\ 4d-\ 4f\	.	.
4A-\ 4d-\ 4f\	(4ff\	.
=53	=53	=53
4E-^\	[1b-)	.
4G\ 4B-\ 4e-\	.	.
4BB-^/	.	.
4G\ 4B-\ 4e-\	.	.
=54	=54	=54
4GG^/	2b-\]	.
4G\ 4B-\ 4e-\	.	.
4E-^\	2ee-\	.
4G\ 4B-\ 4e-\	.	.
=55	=55	=55
4AA-^/	2ee-\	.
4A-\ 4c\ 4e-\	.	.
4A-\ 4c\ 4e-\	(4dd-\	.
4E-^\	4cc\)	.
=56	=56	=56
4AA-^/	2cc\	.
4A-\ 4c\ 4e-\	.	.
4A-\ 4c\ 4e-\	(4bn\	.
4E-^\	4cc\)	.
=57	=57	=57
4AA-^/	[1cc	.
4A-\ 4c\ 4e-\	.	.
4A-\ 4c\ 4e-\	.	.
4E-^\	.	.
=58	=58	=58
4AA-^/	2cc\]	.
4A-\ 4c\ 4e-\	.	.
4A-\ 4c\ 4e-\	(4bn^\	.
4E-^\	4cc\)	.
=59	=59	=59
4GG^/ 4G^/	2cc\	.
4B-\ 4c\ 4en\	.	.
4B-\ 4c\ 4e\	(4bn\	.
4C^/	4cc\)	.
=60	=60	=60
4GG^/ 4G^/	(4dd-\	<
4B-\ 4c\ 4en\	4cc\	.
4B-\ 4c\ 4e\	4.b-\	.
4C^/	.	.
.	8gg\)	.
=61	=61	=61
4F^\	(1b-	.
4B-\ 4c\ 4f\	.	.
4B-\ 4c\ 4f\	.	.
4C^/	.	.
=62	=62	=62
4F^\	2a-/)	.
4A-\ 4c\ 4f\	.	.
4A-\ 4c\ 4f\	2a-/	.
4C^/	.	.
=63	=63	=63
4F-\	2a-/	.
4A-\ 4d-\	.	.
4A-\ 4d-\	4g^/	.
4A-\ 4d-\	4a-/	.
=64	=64	=64
4F-\	(2cc-\	.
4A-\ 4c-\	.	.
4A-\ 4c-\	4b-\	<
4A-\ 4c-\	4a-/)	.
=65	=65	=65
4E-\	[1a- [1aa-	.
4cn\ 4e-\	.	.
4AA-/	.	.
4c\ 4e-\	.	.
=66	=66	=66
4C/	4a-\] 4aa-\]	.
4c\ 4e-\	(4a-/	<
4E-\	4b-\	.
4c\ 4e-\	4cc\	.
=67	=67	=67
4C/	8ee-\)	.
.	8r	.
4c\ 4e-\	(4a-/	<
4E-\	4b-\	.
4c\ 4e-\	4cc\	.
=68	=68	=68
4A-\	8ee-\)	.
.	8r	.
4c\ 4e-\	(4e-/	.
4c\	4f/	.
4e-\ 4a-\	4cc\	.
=69	=69	=69
4G\	(1b-)	.
4d-\ 4e-\	.	.
4E-\	.	.
4d-\ 4e-\	.	.
=70	=70	=70
4A-\ 4c\ 4e-\	4a-/)	.
4r	4r	.
4AA-^\ 4A-^\	2r	.
4AA-^\ 4A-^\	.	.
=71!|:	=71!|:	=71!|:
*>D	*>D	*>D
4AA-\ (4A-\	1r	.
8GG/ 8G/)	.	.
8r	.	.
(4GG/ 4G/	.	.
8FF/) 8F/	.	.
8r	.	.
=72	=72	=72
4FF/ 4F/	2r	.
4EEn/ 4En/	.	.
2r	4f\ 4ff\	f
.	4en/ 4een/	.
=73	=73	=73
4FF/ 4F/	2r	.
4EEn/ 4En/	.	.
4D-\ 4F\ 4B-\	4f\ 4ff\	.
4D-\ 4F\ 4B-\	4g\ 4gg\	.
=74	=74	=74
2C\ 2En\ 2G\ 2c\	2en/ 2een/	.
4C\ 4c\	2r	.
4C\ 4c\	.	.
=75	=75	=75
4C\ (4c\	1r	.
8BB-\ 8B-\)	.	.
8r	.	.
4BB-\ (4B-\	.	.
8AA-\ 8A-\)	.	.
8r	.	.
=76	=76	=76
4AA-\ 4A-\	2r	.
4GG/ 4G/	.	.
2r	4a-\ 4aa-\	.
.	4g\ 4gg\	.
=77	=77	=77
4AA-\ 4A-\	2r	.
4GG/ 4G/	.	.
4F-\ 4A-\ 4d-\	4a-\ 4aa-\	.
4F-\ 4A-\ 4d-\	4b-\ 4bb-\	.
=78	=78	=78
2E-\ 2G\ 2B-\ 2e-\	2g\ 2gg\	.
2r	(8e-/L	<
.	8g/	.
.	8b-/	.
.	8dd-/J	.
=79	=79	=79
*	*^	*
1r	4.ff-/)	4.f-\	.
.	8a-/ 8b-/ 8ff-/	8f-\	.
.	4a-/ 4b-/ 4ff-/	4f-\	.
.	4a-/ 4b-/ 4ff-/	4f-\	.
=80	=80	=80	=80
1r	4g/ 4b-/ 4ff-/	4f-\	.
.	4ee-/	4e-\	.
.	4ddn/	4dn\	.
.	4dd-/	4d-\	.
=81	=81	=81	=81
1r	4cc/	4c\	.
.	4cc-/	4c-\	.
.	4b-/	4B-\	.
.	4an/	4An\	.
=82	=82	=82	=82
2r	4a-/	4A-\	.
.	4g-/	4G-\	.
4r	(8f/L	2r	.
.	8an/	.	.
4r	8cc/	.	.
.	8ee-/J	.	.
=83	=83	=83	=83
1r	4.gg-/)	4.g-\	.
.	8b-/ 8cc/ 8gg-/	8g-\	.
.	4b-/ 4cc/ 4gg-/	4g-\	.
.	4b-/ 4cc/ 4gg-/	4g-\	.
=84	=84	=84	=84
1r	4an/ 4cc/ 4gg-/	4g-\	.
.	4ff/	4f\	.
.	4een/	4en\	.
.	4ee-/	4e-\	.
=85	=85	=85	=85
1r	4ddn/	4dn\	.
.	4dd-/	4d-\	.
.	4cc/	4c\	.
.	4cc-/	4c-\	.
=86	=86	=86	=86
2r	4b-/	4B-\	.
.	4a-/	4A-\	.
4r	(8g/L	2r	.
.	8b-/	.	.
4r	8ee-/	.	.
.	8gg/J	.	.
=87	=87	=87	=87
1r	4.bb-/)	4.b-\	.
.	8dd-/ 8ff-/ 8aa-/ 8bb-/	8b-\	.
.	4dd-/ 4ff-/ 4aa-/ 4bb-/	4b-\	.
.	4dd-/ 4ff-/ 4aa-/ 4bb-/	4b-\	.
=88	=88	=88	=88
2r	4dd-/ 4ee-/ 4gg/ 4bb-/	4e-\	.
.	4dd-/ 4ee-/ 4gg/ 4bb-/	4e-\	.
2r	2r	(8g\L	.
.	.	8b-\	.
.	.	8ee-\	.
.	.	8gg\J	.
=89	=89	=89	=89
1r	4.bb-/)	4.b-\	.
.	8dd-/ 8ff-/ 8aa-/ 8bb-/	8b-\	.
.	4dd-/ 4ff-/ 4aa-/ 4bb-/	4b-\	.
.	4dd-/ 4ff-/ 4aa-/ 4bb-/	4b-\	.
=90	=90	=90	=90
2r	4dd-/ 4ee-/ 4gg/ 4bb-/	4e-\	.
.	4dd-/ 4ee-/ 4gg/ 4bb-/	4e-\	.
2r	2r	(8g\L	.
.	.	8b-\	.
.	.	8ee-\	.
.	.	8gg\J	.
*	*v	*v	*
=91	=91	=91
4.BB-\ 4.B-\	4.b-\ 4.bb-\)	.
8BB-\ (8B-\	8b-\ (8bb-\	<
4.AAn\ 4.An\)	4.an\ 4.aan\)	.
8AA\ (8A\	8a\ (8aa\	.
=92	=92	=92
4.AA-\ 4.A-\)	4.a-\ 4.aa-\)	.
8AA-\ (8A-\	8a-\ (8aa-\	.
4.GG/ 4.G/)	4.g\ 4.gg\)	.
(8GG/ 8G/	8g\ (8gg\	.
=93	=93	=93
4.GG-/) 4.G-/	4.g-\ 4.gg-\)	.
(8GG-/ 8G-/	8g-\ (8gg-\	.
4.FF/) 4.F/	4.f\ 4.ff\)	.
(8FF/ 8F/	8f\ (8ff\	.
=94	=94	=94
4FF-/) 4F-/	4f-\ 4ff-\)	<
4EE-/ 4E-/	4e-/ 4ee-/	.
4FFn/ 4Fn/	4fn\ 4ffn\	.
4EE-/ 4E-/	4ee-\	.
=95	=95	=95
4AA-/	2ee-\ 2eee-\	ff
4A-\ 4c\ 4e-\	.	.
4A-\ 4c\ 4e-\	4dd-\ (4ddd-\	.
4E-\	4cc\ 4ccc\)	.
=96	=96	=96
4AA-/	2cc\ 2ccc\	.
4A-\ 4c\ 4e-\	.	.
4A-\ 4c\ 4e-\	4bn\ (4bbn\	.
4E-\	4cc\ 4ccc\)	.
=97	=97	=97
4AA-/	[1cc [1ccc	.
4A-\ 4c\ 4e-\	.	.
4A-\ 4c\ 4e-\	.	.
4E-\	.	.
=98	=98	=98
4AA-/	2cc\] 2ccc\]	.
4A-\ 4c\ 4e-\	.	.
4A-\ 4c\ 4e-\	4bn\ (4bbn\	.
4E-\	4cc\ 4ccc\)	.
=99	=99	=99
4AA-/	2cc\ 2ccc\	.
4A-\ 4c\ 4e-\	.	.
4A-\ 4c\ 4e-\	4bn\ (4bbn\	.
4E-\	4cc\ 4ccc\)	.
=100	=100	=100
4AA-/	2ee-\ 2eee-\	.
4A-\ 4c\ 4e-\	.	.
4A-\ 4c\ 4e-\	4.cc\ (4.ccc\	.
4E-\	.	.
.	8ee-\ 8eee-\)	.
=101	=101	=101
4BB-/	1dd- (1ddd-	.
4G\ 4d-\ 4e-\	.	.
4G\ 4d-\ 4e-\	.	.
4E-\	.	.
=102	=102	=102
4BB-/	2b-\ 2bb-\)	.
4G\ 4d-\ 4e-\	.	.
4G\ 4d-\ 4e-\	2b-\ 2bb-\	.
4E-\	.	.
=103	=103	=103
4BB-/	2b-\ 2bb-\	.
4G\ 4d-\ 4e-\	.	.
4G\ 4d-\ 4e-\	4an\ (4aan\	.
4E-\	4b-\ 4bb-\)	.
=104	=104	=104
4BB-/	2b-\ 2bb-\	.
4G\ 4d-\ 4e-\	.	.
4G\ 4d-\ 4e-\	4an\ (4aan\	.
4E-\	4b-\ 4bb-\)	.
=105	=105	=105
4BB-/	[1dd- [1ddd-	.
4G\ 4d-\ 4e-\	.	.
4G\ 4d-\ 4e-\	.	.
4E-\	.	.
=106	=106	=106
4BB-/	2dd-\] 2ddd-\]	.
4G\ 4d-\ 4e-\	.	.
4G\ 4d-\ 4e-\	4cc\ 4ccc\	.
4E-\	4b-\ 4bb-\	.
=107	=107	=107
4AA-/	4cc\ 4ccc\	<
4A-\ 4c\ 4e-\	2.ee-\ 2.eee-\	.
4A-\ 4c\ 4e-\	.	.
4A-\ 4c\ 4e-\	.	.
=108	=108	=108
4D-\	2.ff\ 2.fff\	.
4A-\ 4d-\ 4f\	.	.
4A-\ 4d-\ 4f\	.	.
4A-\ 4d-\ 4f\	4ff\ 4fff\	.
=109	=109	=109
4E-\	[1b- [1bb-	.
4G\ 4B-\ 4e-\	.	.
4BB-/	.	.
4G\ 4B-\ 4e-\	.	.
=110	=110	=110
4GG/	2b-\] 2bb-\]	.
4G\ 4B-\ 4e-\	.	.
4E-\	2ee-\ 2eee-\	.
4G\ 4B-\ 4e-\	.	.
=111	=111	=111
4AA-/	2ee-\ 2eee-\	.
4A-\ 4c\ 4e-\	.	.
4A-\ 4c\ 4e-\	4dd-\ (4ddd-\	.
4E-\	4cc\ 4ccc\)	.
=112	=112	=112
4AA-/	2cc\ 2ccc\	.
4A-\ 4c\ 4e-\	.	.
4A-\ 4c\ 4e-\	4bn\ (4bbn\	.
4E-\	4cc\ 4ccc\)	.
=113	=113	=113
4AA-/	[1cc [1ccc	.
4A-\ 4c\ 4e-\	.	.
4A-\ 4c\ 4e-\	.	.
4E-\	.	.
=114	=114	=114
4AA-/	2cc\] 2ccc\]	.
4A-\ 4c\ 4e-\	.	.
4A-\ 4c\ 4e-\	4bn\ (4bbn\	.
4E-\	4cc\ 4ccc\)	.
=115	=115	=115
4GG/ 4G/	2cc\ 2ccc\	.
4B-\ 4c\ 4en\	.	.
4B-\ 4c\ 4e\	4bn\ (4bbn\	.
4C/	4cc\ 4ccc\)	.
=116	=116	=116
4GG/ 4G/	4dd-\ (4ddd-\	.
4B-\ 4c\ 4en\	4cc\ 4ccc\	.
4B-\ 4c\ 4e\	4.b-\ 4.bb-\	.
4C/	.	.
.	8gg\ 8ggg\)	.
=117	=117	=117
4F\	1b- (1bb-	.
4B-\ 4c\ 4f\	.	.
4B-\ 4c\ 4f\	.	.
4C/	.	.
=118	=118	=118
4F\	2a-\ 2aa-\)	.
4A-\ 4c\ 4f\	.	.
4A-\ 4c\ 4f\	2a-\ 2aa-\	.
4C/	.	.
=119	=119	=119
4F-\	2a-\ (2aa-\	.
4A-\ 4d-\	.	.
4A-\ 4d-\	4g\ 4gg\	.
4A-\ 4d-\	4a-\ 4aa-\)	.
=120	=120	=120
4F-\	2cc-\ (2ccc-\	.
4A-\ 4c-\	.	.
4A-\ 4c-\	4b-\ 4bb-\	.
4A-\ 4c-\	4a-\ 4aa-\)	.
=121	=121	=121
4E-\	[1aa- [1aaa-	.
4c\ 4e-\	.	.
4AA-/	.	.
4c\ 4e-\	.	.
=122	=122	=122
4C/	4aa-\] 4aaa-\]	.
4c\ 4e-\	4a-\ (4aa-\	.
4E-\	4b-\ 4bb-\	.
4c\ 4e-\	4cc\ 4ccc\	.
=123	=123	=123
4C/	8ee-\ 8eee-\)	.
.	8r	.
4c\ 4e-\	4a-\ (4aa-\	.
4E-\	4b-\ 4bb-\	.
4c\ 4e-\	4cc\ 4ccc\	.
=124	=124	=124
4A-\	8ee-\ 8eee-\)	.
.	8r	.
4c\ 4e-\	4e-/ (4ee-/	.
4c\	4f\ 4ff\	.
4e-\ 4a-\	4cc\ 4ccc\	.
=125	=125	=125
4G\	1b- 1bb-	.
4d-\ 4e-\	.	.
4E-\	.	.
4d-\ 4e-\	.	.
=126	=126	=126
*>D1	*>D1	*>D1
4A-\ 4c\ 4e-\	4a-\ 4aa-\)	.
4r	4r	.
4AA-^\ 4A-^\	2r	.
4AA-^\ 4A-^\	.	.
=127:|!	=127:|!	=127:|!
*>D2	*>D2	*>D2
4A-\ 4c\ 4e-\	4a-\ 4aa-\	.
4r	4r	.
4AAA-^/ 4AA-^/	4a-^\ 4cc^\ 4ee-^\ 4aa-^\	.
4r	4r	.
==	==	==
*-	*-	*-
!!!ENC: Craig Stuart Sapp
!!!END: 2006/06/17/
